src/assets/svg/collab.svg

<svg width="42" height="42" viewBox="0 0 42 42" fill="none" xmlns="http://www.w3.org/2000/svg">
<path d="M20.9998 0C18.6802 0 16.7998 1.88038 16.7998 4.2C16.7998 6.51963 18.6802 8.4 20.9998 8.4C23.3185 8.39773 25.1975 6.51866 25.1998 4.2C25.1998 1.88038 23.3194 0 20.9998 0ZM20.9998 7C19.4534 7 18.1998 5.74639 18.1998 4.2C18.1998 2.65361 19.4534 1.4 20.9998 1.4C22.5462 1.4 23.7998 2.65361 23.7998 4.2C23.7998 5.74639 22.5462 7 20.9998 7Z" fill="black"/>
<path d="M23.8002 9.09998H23.635L23.4873 9.17348C21.921 9.95336 20.0794 9.95336 18.5131 9.17348L18.3654 9.09998H18.2002C16.2682 9.10225 14.7025 10.668 14.7002 12.6V16.8C14.7002 17.9598 15.6404 18.9 16.8002 18.9H25.2002C26.36 18.9 27.3002 17.9598 27.3002 16.8V12.6C27.2979 10.668 25.7322 9.10225 23.8002 9.09998ZM25.9002 16.8C25.9002 17.1866 25.5868 17.5 25.2002 17.5H16.8002C16.4136 17.5 16.1002 17.1866 16.1002 16.8V12.6C16.1004 11.4982 16.952 10.5838 18.0511 10.5056C19.9214 11.3736 22.0791 11.3736 23.9493 10.5056C25.0483 10.5838 25.9 11.4982 25.9002 12.6V16.8Z" fill="black"/>
<path d="M35.7 23.1C33.3804 23.1 31.5 24.9804 31.5 27.3C31.5 29.6196 33.3804 31.5 35.7 31.5C38.0196 31.5 39.9 29.6196 39.9 27.3C39.8977 24.9813 38.0187 23.1023 35.7 23.1ZM35.7 30.1C34.1536 30.1 32.9 28.8464 32.9 27.3C32.9 25.7536 34.1536 24.5 35.7 24.5C37.2464 24.5 38.5 25.7536 38.5 27.3C38.5 28.8464 37.2464 30.1 35.7 30.1Z" fill="black"/>
<path d="M38.4999 32.2H38.3347L38.187 32.27C36.6207 33.0498 34.7791 33.0498 33.2128 32.27L33.0651 32.2H32.8999C30.9679 32.2023 29.4022 33.768 29.3999 35.7V39.9C29.3999 41.0598 30.3401 42 31.4999 42H39.8999C41.0597 42 41.9999 41.0598 41.9999 39.9V35.7C41.9976 33.768 40.4319 32.2023 38.4999 32.2ZM40.5999 39.9C40.5999 40.2866 40.2865 40.6 39.8999 40.6H31.4999C31.1133 40.6 30.7999 40.2866 30.7999 39.9V35.7C30.8001 34.5982 31.6517 33.6838 32.7508 33.6056C34.6211 34.4736 36.7787 34.4736 38.649 33.6056C39.7481 33.6838 40.5997 34.5982 40.5999 35.7V39.9Z" fill="black"/>
<path d="M6.3001 23.1C3.98047 23.1 2.1001 24.9804 2.1001 27.3C2.1001 29.6196 3.98047 31.5 6.3001 31.5C8.61972 31.5 10.5001 29.6196 10.5001 27.3C10.4978 24.9813 8.61876 23.1023 6.3001 23.1ZM6.3001 30.1C4.75371 30.1 3.5001 28.8464 3.5001 27.3C3.5001 25.7536 4.75371 24.5 6.3001 24.5C7.84649 24.5 9.1001 25.7536 9.1001 27.3C9.1001 28.8464 7.84649 30.1 6.3001 30.1Z" fill="black"/>
<path d="M9.1 32.2H8.9348L8.7871 32.27C7.22076 33.0498 5.37924 33.0498 3.8129 32.27L3.6652 32.2H3.5C1.568 32.2023 0.002275 33.768 0 35.7V39.9C0 41.0598 0.940188 42 2.1 42H10.5C11.6598 42 12.6 41.0598 12.6 39.9V35.7C12.5977 33.768 11.032 32.2023 9.1 32.2ZM11.2 39.9C11.2 40.2866 10.8866 40.6 10.5 40.6H2.1C1.71343 40.6 1.4 40.2866 1.4 39.9V35.7C1.40018 34.5982 2.25181 33.6838 3.3509 33.6056C5.22121 34.4736 7.37879 34.4736 9.2491 33.6056C10.3482 33.6838 11.1998 34.5982 11.2 35.7V39.9Z" fill="black"/>
<path d="M27.9453 35.5492C27.9449 35.5484 27.9446 35.5476 27.9442 35.5467C27.7927 35.191 27.3815 35.0256 27.0259 35.1771C23.865 36.5019 20.3545 36.7435 17.0418 35.8645L17.697 35.672C18.0682 35.5633 18.281 35.1745 18.1723 34.8033C18.0636 34.4321 17.6748 34.2193 17.3036 34.328L14.5036 35.1491C14.4931 35.1491 14.4854 35.161 14.4756 35.1645C14.4108 35.1887 14.3499 35.2224 14.295 35.2646C14.2707 35.2777 14.2473 35.2924 14.225 35.3087C14.1511 35.3746 14.0926 35.4558 14.0535 35.5467C14.0155 35.6382 13.9974 35.7368 14.0003 35.8358C14.0174 35.9306 14.0407 36.0241 14.0703 36.1158C14.0745 36.1256 14.0703 36.1368 14.078 36.1466L15.478 38.8255C15.657 39.1684 16.0801 39.3013 16.423 39.1223C16.7659 38.9433 16.8988 38.5202 16.7198 38.1773L16.15 37.0881C19.9137 38.2195 23.9546 37.9996 27.5733 36.4665C27.9292 36.3159 28.0958 35.9052 27.9453 35.5492Z" fill="#E10303"/>
<path d="M39.6947 18.4051C39.4214 18.1318 38.9783 18.1318 38.7049 18.4051L37.7144 19.3956C37.1348 13.2645 33.2422 7.94393 27.5742 5.53558C27.2185 5.38403 26.8074 5.54949 26.6558 5.90518C26.5043 6.26086 26.6697 6.67203 27.0254 6.82358C32.11 8.98456 35.6445 13.7071 36.2843 19.1947L35.4947 18.4051C35.2166 18.1365 34.7735 18.1442 34.5049 18.4222C34.2429 18.6935 34.2429 19.1235 34.5049 19.3949L36.6049 21.4949C36.8779 21.7686 37.3212 21.7692 37.5949 21.4961C37.5953 21.4957 37.5958 21.4952 37.5961 21.4949L39.6961 19.3949C39.969 19.1212 39.9684 18.6781 39.6947 18.4051Z" fill="#E10303"/>
<path d="M15.3799 6.06126C15.3776 6.0204 15.3716 5.97989 15.3617 5.94016C15.3617 5.93386 15.354 5.92966 15.3512 5.92266C15.3484 5.91566 15.3512 5.91076 15.3512 5.90516C15.3321 5.87113 15.3101 5.83875 15.2854 5.80856C15.2627 5.76753 15.236 5.72885 15.2056 5.69306C15.1642 5.6564 15.1184 5.62516 15.0691 5.59996C15.0445 5.57905 15.0183 5.56006 14.9907 5.54326L12.1907 4.26436C11.8331 4.11754 11.4241 4.28843 11.2773 4.64604C11.1384 4.98423 11.2832 5.37238 11.6097 5.53696L13.0594 6.19986C7.60176 9.1207 4.19626 14.8099 4.2002 21C4.2002 21.3865 4.51362 21.7 4.9002 21.7C5.28677 21.7 5.6002 21.3865 5.6002 21C5.5967 15.5493 8.47904 10.5042 13.1763 7.73916L12.6702 8.79686C12.5033 9.14485 12.6495 9.56223 12.9971 9.72996C13.0915 9.77608 13.1951 9.80005 13.3002 9.79996C13.569 9.79961 13.8138 9.64535 13.9302 9.40306L15.3302 6.48196C15.3302 6.47496 15.3302 6.46726 15.3358 6.46026C15.354 6.4124 15.3667 6.36261 15.3736 6.31186C15.3856 6.27415 15.3945 6.23556 15.4002 6.19636C15.3978 6.15078 15.3911 6.10554 15.3799 6.06126Z" fill="#E10303"/>
</svg>

<svg width="42" height="42" fill="none" xmlns="http://www.w3.org/2000/svg">
  <path
    d="M21 0a4.2 4.2 0 100 8.4A4.2 4.2 0 0021 0zm0 7a2.8 2.8 0 110-5.6A2.8 2.8 0 0121 7zM23.8 9.1h-.165l-.148.073a5.58 5.58 0 01-4.974 0l-.148-.073H18.2a3.504 3.504 0 00-3.5 3.5v4.2c0 1.16.94 2.1 2.1 2.1h8.4a2.1 2.1 0 002.1-2.1v-4.2a3.504 3.504 0 00-3.5-3.5zm2.1 7.7a.7.7 0 01-.7.7h-8.4a.7.7 0 01-.7-.7v-4.2a2.1 2.1 0 011.951-2.094 7.005 7.005 0 005.898 0A2.1 2.1 0 0125.9 12.6v4.2zM35.7 23.1a4.2 4.2 0 100 8.4 4.2 4.2 0 000-8.4zm0 7a2.8 2.8 0 110-5.6 2.8 2.8 0 010 5.6zM38.5 32.2h-.165l-.148.07a5.58 5.58 0 01-4.974 0l-.148-.07H32.9a3.504 3.504 0 00-3.5 3.5v4.2c0 1.16.94 2.1 2.1 2.1h8.4a2.1 2.1 0 002.1-2.1v-4.2a3.504 3.504 0 00-3.5-3.5zm2.1 7.7a.7.7 0 01-.7.7h-8.4a.7.7 0 01-.7-.7v-4.2a2.1 2.1 0 011.95-2.094 7.005 7.005 0 005.899 0 2.1 2.1 0 011.95 2.094v4.2zM6.3 23.1a4.2 4.2 0 100 8.4 4.2 4.2 0 000-8.4zm0 7a2.8 2.8 0 110-5.6 2.8 2.8 0 010 5.6zM9.1 32.2h-.165l-.148.07a5.58 5.58 0 01-4.974 0l-.148-.07H3.5A3.504 3.504 0 000 35.7v4.2C0 41.06.94 42 2.1 42h8.4a2.1 2.1 0 002.1-2.1v-4.2a3.504 3.504 0 00-3.5-3.5zm2.1 7.7a.7.7 0 01-.7.7H2.1a.7.7 0 01-.7-.7v-4.2a2.1 2.1 0 011.95-2.094 7.005 7.005 0 005.9 0A2.1 2.1 0 0111.2 35.7v4.2z"
    fill="#000" />
  <path
    d="M27.945 35.55v-.003a.7.7 0 00-.92-.37 15.527 15.527 0 01-9.983.688l.655-.193a.7.7 0 10-.393-1.344l-2.8.821c-.01 0-.019.012-.028.015a.696.696 0 00-.181.1.605.605 0 00-.07.045.677.677 0 00-.225.527c.017.095.04.188.07.28.005.01 0 .02.008.03l1.4 2.68a.7.7 0 001.242-.649l-.57-1.089a16.85 16.85 0 0011.423-.621.7.7 0 00.372-.918zM39.695 18.405a.7.7 0 00-.99 0l-.99.99a16.775 16.775 0 00-10.14-13.86.7.7 0 10-.55 1.289 15.377 15.377 0 019.26 12.37l-.79-.789a.7.7 0 00-.99.99l2.1 2.1a.7.7 0 00.99.001l.001-.001 2.1-2.1a.7.7 0 00-.001-.99zM15.38 6.061a.652.652 0 00-.018-.12c0-.007-.008-.011-.01-.018-.004-.007 0-.012 0-.018a.672.672 0 00-.067-.096.707.707 0 00-.08-.116.656.656 0 00-.136-.093.614.614 0 00-.078-.057l-2.8-1.279a.7.7 0 00-.581 1.273l1.45.663A16.774 16.774 0 004.2 21a.7.7 0 001.4 0 15.376 15.376 0 017.576-13.26l-.506 1.057a.7.7 0 001.26.606l1.4-2.921c0-.007 0-.015.006-.022a.672.672 0 00.038-.148.725.725 0 00.026-.116.701.701 0 00-.02-.135z"
    fill="#E10303" /></svg>
